src/pos-icons/timelapse.svg

<svg height="24" viewBox="0 0 24 24" width="24" xmlns="http://www.w3.org/2000/svg"><path d="m12 20a8 8 0 0 1 -8-8 8 8 0 0 1 8-8 8 8 0 0 1 8 8 8 8 0 0 1 -8 8m0-18a10 10 0 0 0 -10 10 10 10 0 0 0 10 10 10 10 0 0 0 10-10 10 10 0 0 0 -10-10m4.24 5.76c-1.17-1.18-2.71-1.76-4.24-1.76v6l-4.24 4.24c2.34 2.34 6.14 2.34 8.48 0 2.35-2.34 2.35-6.14 0-8.48z"/></svg>

<?xml version="1.0" encoding="UTF-8"?><!DOCTYPE svg PUBLIC "-//W3C//DTD SVG 1.1//EN" "http://www.w3.org/Graphics/SVG/1.1/DTD/svg11.dtd"><svg xmlns="http://www.w3.org/2000/svg" xmlns:xlink="http://www.w3.org/1999/xlink" version="1.1" id="mdi-timelapse" width="24" height="24" viewBox="0 0 24 24"><path d="M12,20A8,8 0 0,1 4,12A8,8 0 0,1 12,4A8,8 0 0,1 20,12A8,8 0 0,1 12,20M12,2A10,10 0 0,0 2,12A10,10 0 0,0 12,22A10,10 0 0,0 22,12A10,10 0 0,0 12,2M16.24,7.76C15.07,6.58 13.53,6 12,6V12L7.76,16.24C10.1,18.58 13.9,18.58 16.24,16.24C18.59,13.9 18.59,10.1 16.24,7.76Z" /></svg>
